X:83
T:German Waltz. LIT.083
M:6/8
Q:3/8=90
L:1/8
B:Wm. Litten MS, 1802
Z:Village Music Project 2017 Anne Wride
K:D
GFE D2 d | dcB A2G | GFE D2 d | dcB A2 c/d/ |
eAA fAA | Agf fed | dcB Agf | edc d3 ;|
|: AFA dcB | BAA A3 | AFA GFE | EFF F3 |
AFA dcB | BAA A3 | AFA GFE | Add d3 :|

